X:1
T:G Major                        Jacob Kimball, 1793
T:Isaac Watts, 1709 (Hymn 74, Book 2)
T:Severn
T:Transcribed from Kimball's Rural Harmony, 1793.
%%score [ 1 2 3 ]
L:1/8
Q:1/4=60
M:2/2
K:G
V:1 treble nm="Tenor" snm="T."
V:2 treble nm="Treble" snm="Tr."
V:3 bass nm="Bass" snm="B."
V:1
 D | G2 AB/c/ B3 A | G3 A B2 cd/e/ | d3 c B2 z B | Adcd e2 z f | g>fe>d d2 z d | g3 g fe d^c | %7
w: Is|this the~ _ _ kind re-|turn? And these the~ _ _|thanks we owe? Is|this the kind re- turn? *|||
 d6 z d | dccB BA A2 | z ddc cBBA | G3 A B A/B/4c/4BA | B c/d/4e/4de f e/f/4g/4fe | d4 z2 z d | %13
w: ||||||
 defe d3 d | cdcB{B} A2 z A | B3 A G2 c2 | B2 AA d3 d | c2 c2 B3 B | A2 z A d3 d | %19
w: ||||||
 cd/e/ dc B2 z A | B3 B cd e/d/ c/B/ | (B2 A)G (d2 c)B | (B2 A) d/c/ B2 A2 | G8 |{d} c4 z2 cB | %25
w: ||||||
 BA z2 cc B2 | z Be^d de ed | z2 g2 z2 g/>f/ g/>e/ | ^dd e/g/ f/e/ defg | f2 e2 ^d2 z2 | %30
w: |||||
 e2 z2 BBBc | c/B/ A/G/FB B/e/ ^d/e/GF | E4 z2 z E | B A/B/4c/4B>A G>AB c/B/ | A/G/ F/E<^DF/ GFGc | %35
w: |||||
 Bed>d fgfTe |{e} d4 z DFA | d>c B3 B B/e/ ^d/e/ | c/B/ A/G/ e/d/ c/B/ (B2 A)D | GBdD GBd>d | %40
w: |||||
 A/d/ ^c/d/ A/d/ c/d/ d3 d | d e/d/cB AGF>A | B F/G/4A/4G A/B/4c/4 B3 d | %43
w: |||
 d/g/ f/g/ d/g/ f/g/ (c/B/A/G/ e/c/B/A/ | B2) A2 G4 |] %45
w: ||
V:2
 z | z8 | z2 z D G2 AB/c/ | B3 A G2 z G | FBAB c2 z d | e>dc>B B2 z d | B3 B AG FE | F6 z B | %8
w: ||Is this the~ _ _|kind re- turn? Is|this the kind re- turn? And|these the thanks we owe? And|these the thanks * we *|owe? Thus|
 BAAG GF F2 | B2 BA AGGF | G3 F G F/G/4A/4GF | G A/B/4c/4BA ddAG | F4 z2 z A | FAd^c B3 B | %14
w: to a- buse e- ter- nal love,|Thus to a- buse e- ter- nal|love, Whence all our~ _ _ bles- sings,|all our~ _ _ bles- sings, all our bles- sings|flow? To|what a stub- born frame, Has|
 AGAG{G} F2 z F | G3 F E2 F2 | G2 FF G3 G | A2 A2 G3 G |{G} F2 z F G3 G | E2 F2 G2 z F | %20
w: sin re- duced our mind? What|strange re- bel- lious|wret- ches, What strange re-|bel- lious wret- ches|we, And God as|stran- gely kind! What|
 G3 G AB c/B/ A/G/ | (G2 F)B (B2 A)G | (G2 F) B/A/ G2 F2 | G8 |{B} A4 z2 AG | GF z2 AA G2 | %26
w: strange re- bel- lious wret- * ches *|we, * And God, * and|God, * as * strange- ly|kind!|Turn, turn us,|turn us, migh- ty God!|
 z BBB BB B2 | z2 e2 z2 e/>^d/ e/>c/ | BBBB BBBB | B2 G2 F2 z2 | B2 z2 GBec | %31
w: And mold our hearts a- fresh,|Break, sove- * reign *|grace, these hearts of stone, And give us|hearts of flesh.|Break, sove- reign grace, these|
 c/B/ A/G/FF G/A/B B/e/ ^d/e/ | e4 z2 z E | G F/G/4A/4G>F E>FG A/G/ | F/E/ D/C<B,D/ GcBA | %35
w: hearts * of * stone, And give * us hearts * of *|flesh. Let|old in- * * gra- ti- tude Pro- voke our *|wee- * ping * eyes; And hour- ly, as new|
 GcB>B ddd^c | d4 z DFA | F>F G3 G G/c/ B/c/ | e/d/ c/B/ c/B/ A/G/ (G2 F)D | GBdD GBd>d | %40
w: mer- cies fall, Let hour- ly thanks a-|rise. Let old in-|gra- ti- tude Pro- voke * our *|wee- * ping, * wee- * ping * eyes,~ _ And|hour- ly, as new mer- cies fall, Let|
 fgfTe d3 B | B c/B/AG FED>F | GDD F/G/4A/4 G3 A | BBBB (e/d/c/B/ c/A/G/F/ | G2) F2 G4 |] %45
w: hour- ly thanks a- rise. And|hour- ly * as new mer- cies fall, Let|hour- ly thanks a- * * rise. Let|hour- ly, hour- ly thanks~ _ _ _ _ _ _ _|_ a- rise.|
V:3
 z | z8 | z8 | z4 z2 z G,, | D,D,D,G, C,A,,D,D, | C,>D,E,>F, G,D,E,F, | G,3 E, F,G,A,A,, | %7
w: |||Is|this the kind re- turn?~ _ _ _|_ _ _ _ _ _ _ _||
 D,6 z G,, | G,,C,C,G,, G,,D, D,2 | G,2 G,F, F,G,G,D, | G,3 D, D,D,D,D, | D,D,D,D, D,G,A,A,, | %12
w: |||||
 D,4 z2 z D, | D,D,D,A,, B,,3 G,, | A,,B,,C,G,, D,2 z D, | G,,3 A,, B,,2 A,,2 | D,2 D,D, B,,3 B,, | %17
w: |||||
 C,2 C,2 G,3 G, |{E,} D,2 z D, B,,3 B,, | C,2 A,,2 G,,2 z2 | z8 | z2 z G, D,3 D, | D,3 D, D,2 D,2 | %23
w: ||||||
 G,,8 | D,4 z2 F,G, | D,D, z2 D,D, G,2 | z E,E,B, B,E, B,2 | z2 E,2 z2 E,E, | %28
w: |||||
 B,,B,,E,E, B,,E,B,,E, | ^D,2 E,2 B,,2 z2 | E,2 z2 E,E,E,E | C/B,/ A,/G,/F,^D, E,E,B,B,, | %32
w: ||||
 E,4 z2 z E, | E,E,B,,>B,, E,>E,E,E, | A,,^A,,B,,>D, G,,D,G,D, | G,CG,>G, F,E,D,A,, | %36
w: ||||
 D,4 z D,F,A, | D,>D, G,3 G,E,E, | C,2 C,C, D,3 D, | G,B,DD, G,B,D>G, | F,E,D,A, D,3 G, | %41
w: |||||
 E,E,C,^C, D,A,,D,>D, | G,D,B,,D, G,3 F, | G,3 G, (E,C, D,2 | D,2) D,2 G,,4 |] %45
w: ||||

